X: 13
T: Jig Of Slurs, The
C: G.S. MacLennan
Z: Sean Perry
S: https://thesession.org/tunes/35#setting50806
R: jig
M: 6/8
L: 1/8
K: Dmaj
|:Add dcd|Bdd Add|Bdd Add|Bee edB|
Add dcd|Bdd Add|Bcd cde|fdc dcB:|
|:A2f {g}fef|aff fed|Bee ede|~f3 edB|
A2f {g}fef|aff fed|Bcd cde|fdc d2B:|
K:Gmaj
|:G2g {a}gfg|agf gdB|G2g {a}gfg|agf g2B|
G2g {a}gfg|agf g2d|e2e efg|fed edB:|
|:GBB Bdd|dee edB|GBB Bdd|dee efg|
GBB Bdd|dee edB|e2e efg|fed edB:|

